images/wash_icon_active.svg

<?xml version="1.0" encoding="UTF-8"?>
<svg width="33px" height="26px" viewBox="0 0 33 26" version="1.1" xmlns="http://www.w3.org/2000/svg" xmlns:xlink="http://www.w3.org/1999/xlink">
    <!-- Generator: Sketch 46 (44423) - http://www.bohemiancoding.com/sketch -->
    <title>wash_icon</title>
    <desc>Created with Sketch.</desc>
    <defs></defs>
    <g id="Round-3" stroke="none" stroke-width="1" fill="none" fill-rule="evenodd">
        <g id="Home" transform="translate(-329.000000, -1239.000000)">
            <g id="wash_icon" transform="translate(329.000000, 1239.000000)">
                <path d="M17.4431111,17.7923056 L7.94444444,8.29363889 L19.4364444,5.31158333 L24.7480278,0 L32.1154167,0 L32.1154167,1.39858333 L25.3276111,1.39858333 L20.4255278,6.30030556 L17.4431111,17.7923056 Z M10.6462778,9.01730556 L16.7194444,15.0901111 L18.9420833,6.79430556 L10.6462778,9.01730556 Z" id="Shape" fill="#000000" fill-rule="nonzero"></path>
                <polygon id="Path" fill="#79EAB9" points="10.6462778 9.01730556 16.7194444 15.0901111 18.9420833 6.79430556"></polygon>
                <path d="M8.32604861,12.4058819 C8.2281875,12.4058819 8.1306875,12.3686875 8.05629861,12.2939375 C7.90715972,12.1447986 7.90715972,11.9035764 8.05629861,11.7544375 L8.86554861,10.9451875 C9.0146875,10.7960486 9.25590972,10.7960486 9.40504861,10.9451875 C9.5541875,11.0943264 9.5541875,11.3355486 9.40504861,11.4846875 L8.59579861,12.2939375 C8.52140972,12.3686875 8.42354861,12.4058819 8.32604861,12.4058819 Z" id="Shape" fill="#000000" fill-rule="nonzero"></path>
                <path d="M2.54827083,18.1321111 C2.45077083,18.1321111 2.35290972,18.0945556 2.27852083,18.0201667 C2.12938194,17.8713889 2.12938194,17.6294444 2.27852083,17.4806667 L3.73488194,16.0246667 C3.88402083,15.8755278 4.12524306,15.8755278 4.27438194,16.0246667 C4.42352083,16.1734444 4.42352083,16.4150278 4.27438194,16.5638056 L2.81802083,18.0201667 C2.74327083,18.0945556 2.64577083,18.1321111 2.54827083,18.1321111 Z M5.46099306,15.2190278 C5.36349306,15.2190278 5.26599306,15.1814722 5.19124306,15.1070833 C5.04210417,14.9583056 5.04210417,14.7167222 5.19124306,14.5679444 L6.64760417,13.1115833 C6.79674306,12.9628056 7.03796528,12.9628056 7.18710417,13.1115833 C7.33624306,13.2607222 7.33624306,13.5019444 7.18710417,13.6510833 L5.73074306,15.1070833 C5.65599306,15.1818333 5.55849306,15.2190278 5.46099306,15.2190278 Z" id="Shape" fill="#000000" fill-rule="nonzero"></path>
                <path d="M0.381604167,20.3499653 C0.284104167,20.3499653 0.186243056,20.3124097 0.111854167,20.2380208 C-0.0372847222,20.0892431 -0.0372847222,19.8476597 0.111854167,19.6985208 L0.921104167,18.8896319 C1.07024306,18.7404931 1.31146528,18.7404931 1.46060417,18.8896319 C1.60974306,19.0384097 1.60974306,19.2799931 1.46060417,19.4287708 L0.651354167,20.2380208 C0.576965278,20.3127708 0.479465278,20.3499653 0.381604167,20.3499653 Z" id="Shape" fill="#000000" fill-rule="nonzero"></path>
                <path d="M9.77049306,14.5719167 C9.67299306,14.5719167 9.57513194,14.5347222 9.50074306,14.4603333 C9.35160417,14.3111944 9.35160417,14.0696111 9.50074306,13.9208333 L10.3099931,13.1115833 C10.4591319,12.9628056 10.7003542,12.9628056 10.8494931,13.1115833 C10.9986319,13.2603611 10.9986319,13.5023056 10.8494931,13.6510833 L10.0402431,14.4603333 C9.96585417,14.5347222 9.86835417,14.5719167 9.77049306,14.5719167 Z" id="Shape" fill="#000000" fill-rule="nonzero"></path>
                <path d="M3.99271528,20.2986875 C3.89485417,20.2986875 3.79735417,20.2614931 3.72296528,20.1867431 C3.57382639,20.0379653 3.57382639,19.7963819 3.72296528,19.6476042 L5.17932639,18.1912431 C5.32846528,18.0424653 5.5696875,18.0424653 5.71882639,18.1912431 C5.86796528,18.3400208 5.86796528,18.5819653 5.71882639,18.7307431 L4.26246528,20.1867431 C4.18807639,20.2614931 4.09021528,20.2986875 3.99271528,20.2986875 Z M6.9054375,17.3859653 C6.80757639,17.3859653 6.71007639,17.3484097 6.6356875,17.2740208 C6.48654861,17.1252431 6.48654861,16.8832986 6.6356875,16.7345208 L8.09204861,15.2785208 C8.2411875,15.1293819 8.48240972,15.1293819 8.6311875,15.2785208 C8.78032639,15.4272986 8.78032639,15.6688819 8.6311875,15.8176597 L7.17482639,17.2740208 C7.10079861,17.3487708 7.0029375,17.3859653 6.9054375,17.3859653 Z" id="Shape" fill="#000000" fill-rule="nonzero"></path>
                <path d="M1.82604861,22.5163611 C1.7281875,22.5163611 1.6306875,22.4791667 1.55629861,22.4044167 C1.40715972,22.2556389 1.40715972,22.0140556 1.55629861,21.8652778 L2.36554861,21.0560278 C2.5146875,20.90725 2.75590972,20.90725 2.90504861,21.0560278 C3.0541875,21.2051667 3.0541875,21.44675 2.90504861,21.5955278 L2.09579861,22.4044167 C2.02104861,22.4795278 1.92354861,22.5163611 1.82604861,22.5163611 Z" id="Shape" fill="#000000" fill-rule="nonzero"></path>
                <path d="M11.9371597,16.0163611 C11.8396597,16.0163611 11.7417986,15.9788056 11.6674097,15.9044167 C11.5182708,15.7556389 11.5182708,15.5140556 11.6674097,15.3652778 L12.4766597,14.5560278 C12.6257986,14.40725 12.8670208,14.40725 13.0161597,14.5560278 C13.1652986,14.7048056 13.1652986,14.9463889 13.0161597,15.0951667 L12.2069097,15.9044167 C12.1325208,15.9791667 12.0350208,16.0163611 11.9371597,16.0163611 Z" id="Shape" fill="#000000" fill-rule="nonzero"></path>
                <path d="M6.15938194,21.7428611 C6.06188194,21.7428611 5.96402083,21.7053056 5.88963194,21.6309167 C5.74049306,21.4821389 5.74049306,21.2401944 5.88963194,21.0914167 L7.34599306,19.6354167 C7.49513194,19.4862778 7.73635417,19.4862778 7.88549306,19.6354167 C8.03463194,19.7841944 8.03463194,20.0257778 7.88549306,20.1745556 L6.42913194,21.6309167 C6.35474306,21.7056667 6.25724306,21.7428611 6.15938194,21.7428611 Z M9.07210417,18.8301389 C8.97460417,18.8301389 8.87674306,18.7925833 8.80235417,18.7181944 C8.65321528,18.5694167 8.65321528,18.3278333 8.80235417,18.1790556 L10.2587153,16.7226944 C10.4078542,16.5739167 10.6490764,16.5739167 10.7982153,16.7226944 C10.9473542,16.8714722 10.9473542,17.1130556 10.7982153,17.2621944 L9.34185417,18.7181944 C9.26746528,18.7925833 9.16960417,18.8301389 9.07210417,18.8301389 Z" id="Shape" fill="#000000" fill-rule="nonzero"></path>
                <path d="M3.99271528,23.9610764 C3.89485417,23.9610764 3.79735417,23.9235208 3.72296528,23.8491319 C3.57382639,23.7003542 3.57382639,23.4587708 3.72296528,23.3096319 L4.53221528,22.5007431 C4.68135417,22.3516042 4.92257639,22.3516042 5.07171528,22.5007431 C5.22085417,22.6495208 5.22085417,22.8911042 5.07171528,23.0398819 L4.26246528,23.8491319 C4.18771528,23.9235208 4.09021528,23.9610764 3.99271528,23.9610764 Z" id="Shape" fill="#000000" fill-rule="nonzero"></path>
                <path d="M13.3816042,17.4608056 C13.2837431,17.4608056 13.1862431,17.4236111 13.1118542,17.3488611 C12.9627153,17.2000833 12.9627153,16.9585 13.1118542,16.8097222 L13.9211042,16.0004722 C14.0702431,15.8516944 14.3114653,15.8516944 14.4606042,16.0004722 C14.6097431,16.14925 14.6097431,16.3911944 14.4606042,16.5399722 L13.6513542,17.3488611 C13.5766042,17.4236111 13.4791042,17.4608056 13.3816042,17.4608056 Z" id="Shape" fill="#000000" fill-rule="nonzero"></path>
                <path d="M7.60382639,23.1876667 C7.50632639,23.1876667 7.40846528,23.1501111 7.33407639,23.0757222 C7.1849375,22.9269444 7.1849375,22.6853611 7.33407639,22.5365833 L8.7904375,21.0802222 C8.93957639,20.9310833 9.18079861,20.9310833 9.3299375,21.0802222 C9.47907639,21.229 9.47907639,21.4705833 9.3299375,21.6193611 L7.87357639,23.0757222 C7.7991875,23.1501111 7.7016875,23.1876667 7.60382639,23.1876667 Z M10.5165486,20.2745833 C10.4190486,20.2745833 10.3211875,20.2373889 10.2467986,20.1626389 C10.0976597,20.0138611 10.0976597,19.7722778 10.2467986,19.6235 L11.7031597,18.1671389 C11.8522986,18.0183611 12.0935208,18.0183611 12.2426597,18.1671389 C12.3917986,18.3162778 12.3917986,18.5578611 12.2426597,18.7066389 L10.7862986,20.1626389 C10.7119097,20.23775 10.6140486,20.2745833 10.5165486,20.2745833 Z" id="Shape" fill="#000000" fill-rule="nonzero"></path>
                <path d="M5.43715972,25.40525 C5.33965972,25.40525 5.24179861,25.3676944 5.16740972,25.2933056 C5.01827083,25.1445278 5.01827083,24.9029444 5.16740972,24.7541667 L5.97665972,23.9449167 C6.12579861,23.7961389 6.36702083,23.7961389 6.51615972,23.9449167 C6.66529861,24.0936944 6.66529861,24.3352778 6.51615972,24.4844167 L5.70690972,25.2933056 C5.63215972,25.3680556 5.53465972,25.40525 5.43715972,25.40525 Z" id="Shape" fill="#000000" fill-rule="nonzero"></path>
            </g>
        </g>
    </g>
</svg>

<svg xmlns="http://www.w3.org/2000/svg" width="33" height="26"><title>wash_icon</title><desc>Created with Sketch.</desc><g fill="none"><g><g><path id="Shape" fill="#000" fill-rule="nonzero" d="M17.44 17.8l-9.5-9.5 11.5-3 5.3-5.3h7.38v1.4h-6.8l-4.9 4.9-2.98 11.5zM10.64 9l6.08 6.07 2.22-8.3L10.64 9z"/><path fill="#79EAB9" d="M10.65 9.02l6.07 6.07 2.22-8.3z"/><path fill="#000" fill-rule="nonzero" d="M8.33 12.4c-.1 0-.2-.03-.27-.1-.15-.16-.15-.4 0-.55l.8-.8c.15-.15.4-.15.55 0 .15.14.15.4 0 .53l-.8.8c-.08.1-.18.13-.27.13zM2.55 18.13c-.1 0-.2-.04-.27-.1-.15-.16-.15-.4 0-.55l1.45-1.46c.15-.14.4-.14.54 0 .15.15.15.4 0 .54l-1.45 1.46c-.08.07-.17.1-.27.1zm2.9-2.9c-.1 0-.18-.05-.26-.12-.16-.14-.16-.38 0-.53l1.45-1.46c.15-.14.4-.14.54 0 .14.16.14.4 0 .55L5.72 15.1c-.07.08-.17.12-.27.12zM.38 20.35c-.1 0-.2-.04-.27-.1-.14-.16-.14-.4 0-.55l.82-.8c.15-.16.4-.16.54 0 .15.14.15.38 0 .53l-.8.8c-.08.08-.18.12-.28.12zM9.77 14.57c-.1 0-.2-.04-.27-.1-.15-.16-.15-.4 0-.55l.8-.8c.16-.16.4-.16.55 0 .15.14.15.38 0 .53l-.8.8c-.08.08-.18.12-.28.12zM4 20.3c-.1 0-.2-.04-.28-.1-.15-.16-.15-.4 0-.55l1.46-1.46c.15-.16.4-.16.54 0 .15.14.15.38 0 .53L4.26 20.2c-.07.06-.17.1-.27.1zm2.9-2.9c-.1 0-.2-.05-.26-.13-.15-.14-.15-.4 0-.54l1.45-1.45c.14-.15.38-.15.53 0 .15.15.15.4 0 .54l-1.46 1.45c-.07.08-.17.12-.26.12zM1.83 22.52c-.1 0-.2-.04-.27-.12-.15-.14-.15-.4 0-.53l.8-.8c.15-.16.4-.16.55 0 .15.14.15.38 0 .53l-.8.8c-.08.08-.18.12-.27.12zM11.94 16.02c-.1 0-.2-.04-.27-.12-.15-.14-.15-.4 0-.53l.8-.8c.16-.16.4-.16.55 0 .15.13.15.38 0 .53l-.8.8c-.1.08-.18.12-.28.12zM6.16 21.74c-.1 0-.2-.03-.27-.1-.16-.16-.16-.4 0-.55l1.45-1.46c.15-.15.4-.15.54 0 .13.14.13.4 0 .53l-1.47 1.46c-.08.08-.17.1-.27.1zm2.9-2.9c-.1 0-.18-.05-.26-.12-.15-.15-.15-.4 0-.54l1.46-1.46c.15-.15.4-.15.54 0 .15.15.15.4 0 .54l-1.46 1.46c-.07.07-.17.1-.27.1zM4 23.96c-.1 0-.2-.04-.28-.1-.15-.16-.15-.4 0-.55l.8-.8c.16-.15.4-.15.55 0 .15.15.15.4 0 .54l-.8.8c-.08.08-.18.12-.28.12zM13.38 17.46c-.1 0-.2-.04-.27-.1-.14-.16-.14-.4 0-.55l.82-.8c.15-.15.4-.15.54 0 .15.15.15.4 0 .54l-.8.8c-.08.08-.18.12-.28.12zM7.6 23.2c-.1 0-.2-.05-.27-.12-.15-.15-.15-.4 0-.54l1.46-1.46c.14-.15.38-.15.53 0 .15.15.15.4 0 .54l-1.46 1.46c-.07.07-.17.1-.27.1zm2.92-2.93c-.1 0-.2-.03-.27-.1-.15-.16-.15-.4 0-.55l1.45-1.45c.15-.15.4-.15.54 0 .15.15.15.4 0 .54l-1.45 1.46c-.1.08-.2.1-.28.1zM5.44 25.4c-.1 0-.2-.03-.27-.1-.15-.16-.15-.4 0-.55l.8-.8c.16-.15.4-.15.55 0 .15.14.15.4 0 .53l-.8.8c-.1.1-.2.13-.28.13z"/></g></g></g></svg>
